svgs/thin/shekel-sign.svg

<svg xmlns="http://www.w3.org/2000/svg" viewBox="0 0 448 512"><!--! Font Awesome Pro 6.6.0 by @fontawesome - https://fontawesome.com License - https://fontawesome.com/license (Commercial License) Copyright 2024 Fonticons, Inc. --><path d="M56 32C33.9 32 16 49.9 16 72l0 400c0 4.4 3.6 8 8 8s8-3.6 8-8L32 72c0-13.3 10.7-24 24-24l136 0c48.6 0 88 39.4 88 88l0 216c0 4.4 3.6 8 8 8s8-3.6 8-8l0-216c0-57.4-46.6-104-104-104L56 32zM328 480c57.4 0 104-46.6 104-104l0-336c0-4.4-3.6-8-8-8s-8 3.6-8 8l0 336c0 48.6-39.4 88-88 88l-136 0c-13.3 0-24-10.7-24-24l0-272c0-4.4-3.6-8-8-8s-8 3.6-8 8l0 272c0 22.1 17.9 40 40 40l136 0z"/></svg>

<svg xmlns="http://www.w3.org/2000/svg" viewBox="0 0 448 512"><!--! Font Awesome Pro 6.4.2 by @fontawesome - https://fontawesome.com License - https://fontawesome.com/license (Commercial License) Copyright 2023 Fonticons, Inc. --><path d="M56 32C33.9 32 16 49.9 16 72V472c0 4.4 3.6 8 8 8s8-3.6 8-8V72c0-13.3 10.7-24 24-24H192c48.6 0 88 39.4 88 88V352c0 4.4 3.6 8 8 8s8-3.6 8-8V136c0-57.4-46.6-104-104-104H56zM328 480c57.4 0 104-46.6 104-104V40c0-4.4-3.6-8-8-8s-8 3.6-8 8V376c0 48.6-39.4 88-88 88H192c-13.3 0-24-10.7-24-24V168c0-4.4-3.6-8-8-8s-8 3.6-8 8V440c0 22.1 17.9 40 40 40H328z"/></svg>
